X:106
T:Quau te mena
R:Bourr\'ee d'Auvergne
C:trad
N:original url: www.wolfram.claranet.de
M:3/4
L:1/4
K:Gm
G2A| B/A/G^F| A2G| ^FD2| DGA| B/A/G^F| A2G| ^FD2|
|:DGA| cBA| G/^F/GA| BA2| DGA| cBA| G/^F/AF| G3:|
